X: 47
T: Stomp Dance Song (c)
C: Anon.
%%abc-version 2.0
%%abcx-abcm2ps-target-version 5.9.1 (29 Sep 2008)
%%abc-creator hum2abc beta
%%abcx-conversion-date 2020/08/10 20:56:09
%%abc-copyright Electronic Copyright 2000 David Huron
%%abc-edited-by David Huron
%%abcx-initial-encoding-date August 28, 2000
%%humdrum-veritas 501599587
%%humdrum-veritas-data 3128593814
%%linebreak <none>
%%barnumbers 0
L: 1/16
M: 3/4
Q: 1/4=66
K: A clef=bass
A,2 F, E, A,< A, A, G, A,2 A,2 | 
A,2 B,2 C2< A,2 A,2 A,2[M:2/4] | 
A,2 F, E, A, A,2 z[M:3/4] | 
A,2 B,2 C2< A,2 A,2 A,2[M:2/4] | 
A,2 F, E, A,< A, F, E,[M:3/8] | 
A,2 A,2 A, z[M:3/4] | 
A,2 A, A, =C2 A,2 A,2 A,2 | 
A,2 F, E, A,< A, A, G, A,2 A, z | 
C2 C> A, B,2 A,2 A, A,2 z | 
A,2 F, E, A,< A, A, G, A,2 A,2 | 
=C A,2 A, C2 A,2 A, A,2 z | 
A,2 F, E, A,< A, A, G, A,2 A, z | 
A,2 B,2 C2< A,2 A,2 A, z | 
A,2 F, E, A,< A, A, G, A,2 A, z/ D/ | 
D2> A,2 B,2 A,2 A, A,2 z | 
A,2 F, E, A,< A, A, G, A,2 A,2 | 
=C A,2 A, C2 A,2 A, A,2 z | 
A,2 F, E, A,< A, A, G, A,2 A,2 | 
A, A,2 A, =C2 A,2 A, A,2 z | 
A,2 F, E, A,< A, A, G, A,2 A, z/ A,/ | 
A,4A,2 z2z4 |]  


